X: 131006
Q: "Scotch Jig."
M: 6/8
L: 1/8
K: G
uG |\
|: ud |\
gbg afd | egB BAG | gbg afd | e3 g2d |\
gbg afd | egB BAG | GBd dBd | e3 g2 :|


